img/yt-red.svg

<svg width="34" height="34" viewBox="0 0 34 34" fill="none" xmlns="http://www.w3.org/2000/svg">
<g id="youtube">
<path id="Vector" d="M17.4549 33.4303H15.6453C15.5301 33.4095 15.4158 33.3842 15.3007 33.368C14.5869 33.2696 13.8639 33.2173 13.162 33.0683C9.14057 32.2153 5.8503 30.1799 3.37438 26.9368C0.449693 23.1079 -0.566634 18.7843 0.302545 14.0753C1.06205 9.95937 3.18153 6.60973 6.55406 4.08419C10.3123 1.26982 14.5713 0.250755 19.2198 0.965632C22.6371 1.49006 25.5937 2.98661 28.0697 5.37134C30.7384 7.94321 32.351 11.0546 32.9073 14.7054C32.9813 15.1982 33.0361 15.6937 33.0992 16.1875V17.9756C33.027 18.5433 32.9749 19.1138 32.8799 19.677C32.2511 23.3886 30.5465 26.5369 27.7489 29.0914C25.3205 31.3371 22.248 32.7859 18.9529 33.2389C18.4548 33.3129 17.953 33.368 17.4549 33.4303ZM16.5821 10.9342C14.7295 10.9342 12.8759 10.9026 11.0243 10.9432C10.1834 10.9528 9.37959 11.2862 8.78396 11.8724C8.18834 12.4586 7.848 13.2513 7.83543 14.0816C7.79522 16.0813 7.79522 18.0815 7.83543 20.0823C7.84775 20.9071 8.18335 21.6952 8.7717 22.2808C9.36005 22.8664 10.1553 23.2039 10.9904 23.2225C12.5835 23.2649 14.1783 23.2406 15.7723 23.2406C17.8744 23.2406 19.9765 23.2667 22.0732 23.2234C22.9201 23.2144 23.7295 22.8769 24.3266 22.2836C24.9237 21.6903 25.2607 20.889 25.2647 20.0525C25.3001 18.0739 25.3001 16.0951 25.2647 14.1159C25.2605 13.2798 24.9239 12.4788 24.3275 11.8854C23.731 11.292 22.9225 10.9536 22.0759 10.9432C20.2461 10.9026 18.4146 10.9342 16.5821 10.9342Z" fill="#C8102E"/>
<path id="Vector_2" d="M18.8264 17.0828L14.2977 19.686V14.4814L18.8264 17.0828Z" fill="#C8102E"/>
</g>
</svg>

<svg width="34" height="34" fill="none" xmlns="http://www.w3.org/2000/svg"><g fill="#C8102E"><path d="M17.455 33.43h-1.81c-.115-.02-.23-.046-.344-.062-.714-.098-1.437-.15-2.139-.3-4.021-.853-7.312-2.888-9.788-6.131C.45 23.107-.566 18.784.303 14.075c.759-4.116 2.879-7.465 6.251-9.99C10.312 1.27 14.571.25 19.22.964c3.417.525 6.374 2.022 8.85 4.406 2.668 2.572 4.281 5.684 4.837 9.334.074.493.13.989.192 1.482v1.789c-.072.567-.124 1.138-.22 1.701-.628 3.712-2.332 6.86-5.13 9.414a16.205 16.205 0 01-8.796 4.148c-.498.074-1 .129-1.498.191zm-.873-22.496c-1.853 0-3.706-.031-5.558.01a3.246 3.246 0 00-2.24.928 3.167 3.167 0 00-.949 2.21c-.04 2-.04 4 0 6 .013.825.348 1.613.937 2.199a3.248 3.248 0 002.218.942c1.594.042 3.188.018 4.782.018 2.102 0 4.205.026 6.301-.018a3.246 3.246 0 002.254-.94 3.166 3.166 0 00.938-2.23c.035-1.98.035-3.958 0-5.937a3.169 3.169 0 00-.938-2.23 3.25 3.25 0 00-2.251-.943c-1.83-.04-3.661-.009-5.494-.009z"/><path d="M18.826 17.083l-4.528 2.603v-5.205l4.528 2.602z"/></g></svg>
